source/img/sprite/clock.svg

<svg width="" height="" viewBox="0 0 35 35" fill="" xmlns="http://www.w3.org/2000/svg">
<path d="M3.84798 11.6622L2.05404 10.1904C1.07943 9.39114 1.07943 8.09017 2.05404 7.29042C3.02864 6.49094 4.61458 6.49094 5.58919 7.29042L7.50456 8.86162C9.5026 7.72007 11.7803 6.92993 14.1667 6.55075V4.51172H12.5C12.0397 4.51172 11.6667 4.2057 11.6667 3.82812V2.05078C11.6667 0.919914 12.7881 0 14.1667 0H20.8333C22.2119 0 23.3333 0.919914 23.3333 2.05078V3.82812C23.3333 4.2057 22.9603 4.51172 22.5 4.51172H20.8333V6.55075C23.2194 6.92966 25.4974 7.72007 27.4954 8.86162L29.4108 7.29042C30.3851 6.49094 31.971 6.49094 32.946 7.29042C33.9206 8.0899 33.9206 9.39087 32.946 10.1904L31.152 11.6622C33.6387 14.203 35 17.3678 35 20.6445C35 28.5601 27.1494 35 17.5 35C7.85059 35 0 28.5601 0 20.6445C0 17.3678 1.36133 14.203 3.84798 11.6622ZM4.41081 8.25706C4.08561 7.99057 3.55729 7.99084 3.23242 8.25706C2.90788 8.52356 2.90788 8.95721 3.23242 9.22371L4.95443 10.636C5.34245 10.3092 5.74935 9.99756 6.17253 9.70249L4.41081 8.25706ZM21.6667 2.05078C21.6667 1.67374 21.293 1.36719 20.8333 1.36719H14.1667C13.707 1.36719 13.3333 1.67374 13.3333 2.05078V3.14453H21.6667V2.05078ZM15.8333 4.51172V6.35368C16.9378 6.26877 18.0618 6.26877 19.1667 6.35368V4.51172H15.8333ZM31.7676 8.25706C31.4427 7.99084 30.9141 7.99057 30.5892 8.25706L28.8275 9.70249C29.2507 9.99756 29.6576 10.3092 30.0456 10.636L31.7676 9.22371C32.0921 8.95721 32.0921 8.52356 31.7676 8.25706ZM17.5 33.6328C26.2305 33.6328 33.3333 27.8062 33.3333 20.6445C33.3333 17.4853 31.9352 14.4415 29.3968 12.0732C28.6976 11.4208 27.9173 10.8248 27.0778 10.3009C24.974 8.98766 22.4837 8.12328 19.8763 7.80098C19.096 7.70512 18.2965 7.65625 17.5 7.65625C16.7034 7.65625 15.904 7.70512 15.124 7.80098C12.5163 8.12328 10.026 8.98766 7.92188 10.3009C7.08268 10.8248 6.30241 11.4208 5.60319 12.0732C3.06478 14.4415 1.66666 17.4853 1.66666 20.6445C1.66666 27.8062 8.76953 33.6328 17.5 33.6328Z" fill=""/>
<path d="M17.5 22.6953C16.1214 22.6953 15 21.7754 15 20.6445C15 19.7535 15.6966 18.9935 16.6667 18.7112V13.8086C16.6667 13.431 17.0397 13.125 17.5 13.125C17.9603 13.125 18.3334 13.431 18.3334 13.8086V18.7112C19.3034 18.9935 20 19.7535 20 20.6445C20 21.7754 18.8786 22.6953 17.5 22.6953ZM17.5 19.9609C17.0404 19.9609 16.6667 20.2675 16.6667 20.6445C16.6667 21.0216 17.0404 21.3281 17.5 21.3281C17.9597 21.3281 18.3334 21.0216 18.3334 20.6445C18.3334 20.2675 17.9597 19.9609 17.5 19.9609Z" fill=""/>
<path d="M8.62274 13.4326C8.63576 13.42 8.64878 13.4075 8.66343 13.3957C8.67905 13.3826 8.69565 13.3709 8.71225 13.3591C10.181 12.1671 11.9955 11.2851 13.9645 10.8082C14.4063 10.7014 14.8695 10.9081 14.9997 11.2702C15.1299 11.6323 14.8779 12.0125 14.4365 12.1193C12.9776 12.4729 11.6166 13.0838 10.4564 13.8996L11.0186 14.3608C11.3438 14.6278 11.3438 15.0607 11.0186 15.3277C10.8558 15.4612 10.6426 15.528 10.4291 15.528C10.2158 15.528 10.0026 15.4612 9.83986 15.3277L9.27638 14.8655C7.76857 16.3037 6.87306 18.0741 6.69858 19.9609H7.50002C7.9603 19.9609 8.33335 20.2672 8.33335 20.6445C8.33335 21.0221 7.9603 21.3281 7.50002 21.3281H6.69858C6.87306 23.2152 7.76857 24.9853 9.27638 26.4235L9.83986 25.9613C10.1654 25.6945 10.693 25.6945 11.0186 25.9613C11.3441 26.2283 11.3441 26.6612 11.0186 26.9282L10.4551 27.3904C12.2083 28.6273 14.3666 29.3619 16.6667 29.5053V28.8476C16.6667 28.47 17.0397 28.164 17.5 28.164C17.9603 28.164 18.3333 28.47 18.3333 28.8476V29.505C20.6335 29.3619 22.7917 28.6273 24.5449 27.3904L23.9815 26.9282C23.6559 26.6612 23.6559 26.2283 23.9815 25.9613C24.307 25.6945 24.8347 25.6945 25.1602 25.9613L25.7236 26.4235C27.2315 24.9853 28.127 23.2149 28.3014 21.3281H27.5C27.0397 21.3281 26.6667 21.0221 26.6667 20.6445C26.6667 20.2669 27.0397 19.9609 27.5 19.9609H28.3014C28.127 18.0741 27.2315 16.3037 25.7236 14.8655L25.1602 15.3277C24.9974 15.4612 24.7842 15.528 24.571 15.528C24.3574 15.528 24.1442 15.4612 23.9815 15.3277C23.6563 15.0607 23.6563 14.6278 23.9815 14.3608L24.5436 13.8996C23.3835 13.0836 22.0225 12.4729 20.5635 12.1193C20.1221 12.0125 19.8701 11.6323 20.0003 11.2702C20.1305 10.9081 20.5934 10.7017 21.0355 10.8082C23.0042 11.2849 24.818 12.1666 26.2865 13.3581C26.3037 13.3701 26.3207 13.3824 26.3366 13.3955C26.3509 13.4072 26.3636 13.4195 26.3766 13.4318C28.7136 15.3667 30 17.9259 30 20.6445C30 23.3628 28.7136 25.9218 26.3773 27.8564C26.3643 27.869 26.3513 27.8815 26.3366 27.8933C26.3223 27.9053 26.3073 27.9157 26.2923 27.9264C23.9336 29.8431 20.8141 30.8984 17.5 30.8984C14.1862 30.8984 11.0667 29.8434 8.70835 27.9269C8.69305 27.916 8.67775 27.9053 8.66343 27.8933C8.6491 27.8818 8.63641 27.8692 8.62339 27.8572C6.28647 25.9223 5.00002 23.3631 5.00002 20.6445C5.00002 17.9261 6.28647 15.3672 8.62274 13.4326Z" fill=""/>
<path d="M17.5 11.7578C17.04 11.7578 16.6667 11.4515 16.6667 11.0742C16.6667 10.6969 17.04 10.3906 17.5 10.3906C17.96 10.3906 18.3333 10.6969 18.3333 11.0742C18.3333 11.4515 17.96 11.7578 17.5 11.7578Z" fill=""/>
</svg>

<svg xmlns="http://www.w3.org/2000/svg" viewBox="0 0 35 35"><path d="m3.85 11.66-1.8-1.47a1.8 1.8 0 0 1 0-2.9 2.9 2.9 0 0 1 3.54 0L7.5 8.86c2-1.14 4.28-1.93 6.67-2.3V4.5H12.5c-.46 0-.83-.3-.83-.68V2.05C11.67.92 12.79 0 14.17 0h6.66c1.38 0 2.5.92 2.5 2.05v1.78c0 .38-.37.68-.83.68h-1.67v2.04a19.7 19.7 0 0 1 6.67 2.31L29.4 7.3a2.9 2.9 0 0 1 3.54 0c.97.8.97 2.1 0 2.9l-1.8 1.47A12.84 12.84 0 0 1 35 20.64C35 28.56 27.15 35 17.5 35S0 28.56 0 20.64c0-3.27 1.36-6.44 3.85-8.98Zm.56-3.4a.97.97 0 0 0-1.18 0 .6.6 0 0 0 0 .96l1.72 1.42c.4-.33.8-.64 1.22-.94L4.41 8.26Zm17.26-6.2c0-.39-.38-.7-.84-.7h-6.66c-.46 0-.84.31-.84.7v1.08h8.34V2.05ZM15.83 4.5v1.84c1.1-.08 2.23-.08 3.34 0V4.51h-3.34Zm15.94 3.75a.97.97 0 0 0-1.18 0L28.83 9.7c.42.3.83.6 1.22.94l1.72-1.42a.6.6 0 0 0 0-.96ZM17.5 33.63c8.73 0 15.83-5.82 15.83-12.99 0-3.15-1.4-6.2-3.93-8.57a15.2 15.2 0 0 0-2.32-1.77 17.8 17.8 0 0 0-9.58-2.64 17.8 17.8 0 0 0-9.58 2.64 15.2 15.2 0 0 0-2.32 1.77 11.73 11.73 0 0 0-3.93 8.57c0 7.17 7.1 13 15.83 13Z"/><path d="M17.5 22.7c-1.38 0-2.5-.92-2.5-2.06 0-.89.7-1.65 1.67-1.93v-4.9c0-.38.37-.69.83-.69.46 0 .83.31.83.69v4.9C19.3 19 20 19.75 20 20.64c0 1.14-1.12 2.06-2.5 2.06Zm0-2.74c-.46 0-.83.3-.83.68 0 .38.37.69.83.69.46 0 .83-.3.83-.69 0-.37-.37-.68-.83-.68Z"/><path d="M8.62 13.43a.6.6 0 0 1 .04-.03l.05-.04a13.34 13.34 0 0 1 5.25-2.55c.45-.1.9.1 1.04.46.13.36-.12.74-.56.85-1.46.35-2.82.96-3.98 1.78l.56.46a.6.6 0 0 1 0 .97.93.93 0 0 1-.6.2.93.93 0 0 1-.58-.2l-.56-.46a8.06 8.06 0 0 0-2.58 5.1h.8c.46 0 .83.3.83.67 0 .38-.37.69-.83.69h-.8a8.06 8.06 0 0 0 2.58 5.1l.56-.47a.97.97 0 0 1 1.18 0 .6.6 0 0 1 0 .97l-.56.46a12.07 12.07 0 0 0 6.2 2.12v-.66c0-.38.38-.69.84-.69.46 0 .83.31.83.69v.65c2.3-.14 4.46-.87 6.21-2.11l-.56-.46a.6.6 0 0 1 0-.97.97.97 0 0 1 1.18 0l.56.46a8.06 8.06 0 0 0 2.58-5.1h-.8c-.46 0-.83-.3-.83-.68 0-.37.37-.68.83-.68h.8a8.06 8.06 0 0 0-2.58-5.1l-.56.47a.93.93 0 0 1-.59.2.93.93 0 0 1-.59-.2.6.6 0 0 1 0-.97l.56-.46a11.75 11.75 0 0 0-3.98-1.78c-.44-.1-.69-.49-.56-.85.13-.36.6-.57 1.04-.46a13.34 13.34 0 0 1 5.3 2.59l.04.03A9.35 9.35 0 0 1 30 20.64a9.35 9.35 0 0 1-3.66 7.25l-.05.04a13.92 13.92 0 0 1-8.79 2.97c-3.31 0-6.43-1.06-8.8-2.97l-.04-.04-.04-.03A9.35 9.35 0 0 1 5 20.64a9.35 9.35 0 0 1 3.62-7.2Z"/><path d="M17.5 11.76c-.46 0-.83-.3-.83-.69 0-.37.37-.68.83-.68.46 0 .83.3.83.68 0 .38-.37.69-.83.69Z"/></svg>
